common/assets/images/icn-vault.svg

<svg xmlns="http://www.w3.org/2000/svg" width="250" height="211" viewBox="0 0 250 211">
    <g fill="none" fill-rule="evenodd">
        <g fill-rule="nonzero">
            <path fill="#077493" d="M4.25 4.152h218.324v194.919H4.25z"/>
            <path fill="#FEEF6B" d="M238.168 128.9h7.797v-15.593h-7.797V97.713h-70.176v15.594h7.797V128.9h-7.797v7.797a35.084 35.084 0 1 0-27.453 56.96 35.089 35.089 0 0 0 35.25 12.329v.882h70.176v-15.594h-7.797v-15.593h7.797v-15.594h-7.797V128.9z"/>
            <path fill="#08595d" d="M129.795 179.579H23.743v-23.39h11.696v-38.984H23.743V86.018h11.696V47.034H23.743v-23.39H203.08v70.17h-15.595V62.629h7.798V54.83h-15.595v38.984h-8.348c-3.752-28.654-28.265-50.865-57.924-50.865-23.197-.055-44.234 13.604-53.62 34.817a58.473 58.473 0 0 0 10.299 63.094 58.482 58.482 0 0 0 61.908 15.961 38.904 38.904 0 0 0-2.208 22.757z"/>
            <path fill="#7D8694" d="M140.453 144.216c-22.963 14.583-53.334 8.546-68.975-13.71-15.64-22.255-11.03-52.873 10.473-69.535 21.502-16.662 52.304-13.487 69.953 7.212 17.65 20.699 15.917 51.613-3.936 70.21"/>
            <path fill="#005268" d="M31.54 31.44h7.797v7.797H31.54zM187.485 31.44h7.797v7.797h-7.797zM31.54 163.985h7.797v7.797H31.54zM109.513 132.798h7.797v11.695h-7.797zM109.513 58.729h7.797v11.695h-7.797zM70.526 97.713h11.696v7.797H70.526zM144.6 97.713h11.696v7.797H144.6zM132.693 126.41l5.508-5.511 8.272 8.266-5.508 5.512zM80.32 74.027l5.509-5.512 8.272 8.267-5.508 5.511zM80.335 129.184l8.272-8.27 5.509 5.512-8.272 8.268zM132.706 76.803l8.272-8.27 5.509 5.512-8.272 8.269zM136.486 98.376l7.203-7.466-10.292-1.281c-6.165-10.312-19.138-14.277-30.015-9.174C92.506 85.558 87.264 98.07 91.255 109.4c3.992 11.33 15.918 17.796 27.592 14.957 11.674-2.84 19.298-14.06 17.64-25.958v-.024zm-23.07 21.343c-10.001 0-18.109-8.107-18.109-18.108 0-10 8.108-18.108 18.11-18.108 10 0 18.108 8.108 18.108 18.108a18.107 18.107 0 0 1-18.114 18.108h.005z"/>
            <path fill="#FFF" d="M167.992 148.392c-12.919 0-23.392 10.472-23.392 23.39 0 12.918 10.473 23.39 23.392 23.39 12.92 0 23.392-10.472 23.392-23.39 0-12.918-10.473-23.39-23.392-23.39zm0 43.95c-11.355 0-20.56-9.205-20.56-20.56 0-11.354 9.205-20.559 20.56-20.559 11.355 0 20.56 9.205 20.56 20.56-.01 11.35-9.209 20.548-20.56 20.558z"/>
            <path fill="#005268" d="M242.066 140.595v-7.797h7.798v-23.39h-7.798V93.815h-15.594V.253H.35V202.97h35.088v7.797h35.087v-7.797h74.177a38.637 38.637 0 0 0 27.188 7.597v.2h77.973v-23.39h-7.798v-7.797h7.798v-23.39h-7.798v-15.594zm-7.797-38.984v7.797h-62.378v-7.797h62.378zm-28.08 77.968h28.08v7.797h-30.565a38.368 38.368 0 0 0 2.49-7.797h-.005zm-7.086-31.187h35.161v7.797h-30.56a38.95 38.95 0 0 0-4.596-7.797h-.005zm-3.825-7.797h-4.001a38.71 38.71 0 0 0-19.391-7.597v-.2h62.378v7.797h-38.986zm-54.83 3.62c-22.968 14.575-53.336 8.529-68.97-13.732-15.632-22.26-11.011-52.876 10.496-69.531 21.507-16.656 52.307-13.471 69.95 7.233 17.644 20.704 15.902 51.617-3.956 70.208a39.152 39.152 0 0 0-7.515 5.823h-.005zM129.79 179.58H23.743v-23.39h11.696v-38.984H23.743V86.018h11.696V47.034H23.743v-23.39H203.08v70.17h-15.595V62.629h7.798V54.83h-15.595v38.984h-8.348c-3.752-28.654-28.265-50.865-57.924-50.865-23.197-.055-44.234 13.604-53.62 34.817a58.473 58.473 0 0 0 10.299 63.094 58.482 58.482 0 0 0 61.908 15.961 38.904 38.904 0 0 0-2.208 22.757h-.005zM27.636 125.002v23.39H19.84v-23.39h7.797zm0-70.171v23.39H19.84v-23.39h7.797zm144.25 62.374v7.797h-5a58.386 58.386 0 0 0 2.783-7.797h2.217zm-7.797 13.274v2.52c-.57.058-1.121.165-1.686.248a53.842 53.842 0 0 0 1.69-2.768h-.004zM35.434 195.173H8.144V8.05H218.67v85.765h-7.798V15.847H15.941v31.187h-3.9v38.984h3.9v31.187h-3.9v38.984h3.9v31.187h116.345a38.95 38.95 0 0 0 4.59 7.797H35.434zm101.364-23.39a31.04 31.04 0 0 1 8.645-21.49 58.927 58.927 0 0 0 7.203-5.629 31.01 31.01 0 0 1 34.835 2.812v.916h1.067c10.811 9.478 13.742 25.118 7.097 37.867-6.646 12.749-21.147 19.303-35.109 15.868-13.961-3.434-23.766-15.968-23.738-30.345zm105.263 31.186h-50.78a39.21 39.21 0 0 0 7.798-7.796h42.963l.02 7.796zm0-31.187h-35.087c0-2.619-.265-5.23-.79-7.797h35.877v7.797zm-62.378-46.78v-7.797h62.378v7.797h-62.378z"/>
            <path fill="#08595d" d="M19.844 54.831h7.797v23.39h-7.797zM19.844 125.002h7.797v23.39h-7.797z"/>
        </g>
        <path fill="#FFF" d="M113.74 85.938c-8.892 0-16.1 7.208-16.1 16.099 0 8.89 7.208 16.098 16.1 16.098 8.89 0 16.098-7.207 16.098-16.098a16.098 16.098 0 0 0-16.099-16.099z"/>
        <path fill="#007896" fill-rule="nonzero" d="M113.304 83.328c-10.093 0-18.275 8.181-18.275 18.274 0 10.092 8.182 18.273 18.275 18.273 10.093 0 18.275-8.181 18.275-18.273a18.273 18.273 0 0 0-18.275-18.274zm6.316 23.984l-4.705 4.763a2.284 2.284 0 0 1-1.6.674 2.284 2.284 0 0 1-1.599-.674l-4.682-4.763a2.284 2.284 0 0 1 0-3.255 1.245 1.245 0 0 1 1.781 0l2.376 2.41a2.993 2.993 0 0 0 4.272 0l2.41-2.41a1.245 1.245 0 0 1 1.782 0 2.284 2.284 0 0 1-.012 3.255h-.023zm4.946-7.618a1.222 1.222 0 0 1-.868.366 1.142 1.142 0 0 1-.834-.343l-2.284-2.284a2.844 2.844 0 0 0-2.033-.845 2.935 2.935 0 0 0-2.102.88l-2.284 2.34a1.222 1.222 0 0 1-1.142.343 1.142 1.142 0 0 1-.64-.331l-2.284-2.284a2.844 2.844 0 0 0-2.034-.845 2.935 2.935 0 0 0-2.101.879l-2.284 2.341c-.475.46-1.228.46-1.702 0a2.284 2.284 0 0 1 0-3.118l4.568-4.637c.411-.423.975-.662 1.565-.662a2.09 2.09 0 0 1 1.496.628l3.701 3.77 3.77-3.816c.41-.422.975-.66 1.564-.662a2.09 2.09 0 0 1 1.52.628l4.488 4.569c.79.889.765 2.235-.057 3.095l-.023-.012z"/>
    </g>
</svg>

<svg width="250" height="211" viewBox="0 0 250 211" fill="none" xmlns="http://www.w3.org/2000/svg">
<path d="M4.25 4.152H222.574V199.071H4.25V4.152Z" fill="#077493"/>
<path d="M238.168 128.9H245.965V113.307H238.168V97.713H167.992V113.307H175.789V128.9H167.992V136.697C164.291 132.057 159.474 128.432 153.991 126.16C148.508 123.889 142.538 123.045 136.64 123.709C130.742 124.373 125.109 126.522 120.268 129.955C115.427 133.389 111.536 137.994 108.959 143.34C106.382 148.687 105.203 154.6 105.534 160.526C105.864 166.452 107.692 172.197 110.847 177.224C114.003 182.251 118.381 186.395 123.574 189.269C128.767 192.143 134.604 193.653 140.539 193.657C144.658 198.822 150.152 202.719 156.388 204.9C162.624 207.081 169.349 207.458 175.789 205.986V206.868H245.965V191.274H238.168V175.681H245.965V160.087H238.168V128.9V128.9Z" fill="#FEEF6B"/>
<path d="M129.795 179.579H23.743V156.189H35.439V117.205H23.743V86.018H35.439V47.034H23.743V23.644H203.08V93.814H187.485V62.629H195.283V54.83H179.688V93.814H171.34C167.588 65.16 143.075 42.949 113.416 42.949C90.219 42.894 69.182 56.553 59.796 77.766C55.2028 88.1474 53.7308 99.6413 55.5596 110.845C57.3884 122.049 62.439 132.478 70.095 140.86C77.7514 149.242 87.6819 155.215 98.6749 158.049C109.668 160.883 121.248 160.456 132.003 156.821C129.004 164.014 128.235 171.942 129.795 179.578V179.579Z" fill="#08595D"/>
<path d="M140.453 144.216C117.49 158.799 87.119 152.762 71.478 130.506C55.838 108.251 60.448 77.633 81.951 60.971C103.453 44.309 134.255 47.484 151.904 68.183C169.554 88.882 167.821 119.796 147.968 138.393" fill="#7D8694"/>
<path d="M31.54 31.44H39.337V39.237H31.54V31.44ZM187.485 31.44H195.282V39.237H187.485V31.44ZM31.54 163.985H39.337V171.782H31.54V163.985ZM109.513 132.798H117.31V144.493H109.513V132.798ZM109.513 58.729H117.31V70.424H109.513V58.729ZM70.526 97.713H82.222V105.51H70.526V97.713ZM144.6 97.713H156.296V105.51H144.6V97.713ZM132.693 126.41L138.201 120.899L146.473 129.165L140.965 134.677L132.693 126.41ZM80.32 74.027L85.829 68.515L94.101 76.782L88.593 82.293L80.32 74.027ZM80.335 129.184L88.607 120.914L94.116 126.426L85.844 134.694L80.335 129.184ZM132.706 76.803L140.978 68.533L146.487 74.045L138.215 82.314L132.706 76.803ZM136.486 98.376L143.689 90.91L133.397 89.629C127.232 79.317 114.259 75.352 103.382 80.455C92.506 85.558 87.264 98.07 91.255 109.4C95.247 120.73 107.173 127.196 118.847 124.357C130.521 121.517 138.145 110.297 136.487 98.399V98.375L136.486 98.376ZM113.416 119.719C103.415 119.719 95.307 111.612 95.307 101.611C95.307 91.611 103.415 83.503 113.417 83.503C123.417 83.503 131.525 91.611 131.525 101.611C131.525 103.99 131.057 106.345 130.146 108.542C129.236 110.74 127.902 112.736 126.219 114.418C124.537 116.099 122.54 117.433 120.343 118.343C118.145 119.252 115.79 119.72 113.411 119.719H113.416V119.719Z" fill="#005268"/>
<path d="M167.992 148.392C155.073 148.392 144.6 158.864 144.6 171.782C144.6 184.7 155.073 195.172 167.992 195.172C180.912 195.172 191.384 184.7 191.384 171.782C191.384 158.864 180.911 148.392 167.992 148.392ZM167.992 192.342C156.637 192.342 147.432 183.137 147.432 171.782C147.432 160.428 156.637 151.223 167.992 151.223C179.347 151.223 188.552 160.428 188.552 171.783C188.542 183.133 179.343 192.331 167.992 192.341V192.342Z" fill="white"/>
<path d="M242.066 140.595V132.798H249.864V109.408H242.066V93.815H226.472V0.252998H0.350006V202.97H35.438V210.767H70.525V202.97H144.702C152.482 208.841 162.194 211.555 171.89 210.567V210.767H249.863V187.377H242.065V179.58H249.863V156.19H242.065V140.596L242.066 140.595ZM234.269 101.611V109.408H171.891V101.611H234.269ZM206.189 179.579H234.269V187.376H203.704C204.81 184.873 205.644 182.259 206.194 179.579H206.189ZM199.103 148.392H234.264V156.189H203.704C202.48 153.42 200.938 150.804 199.108 148.392H199.103ZM195.278 140.595H191.277C185.629 136.339 178.922 133.711 171.886 132.998V132.798H234.264V140.595H195.278ZM140.448 144.215C117.48 158.79 87.112 152.744 71.478 130.483C55.846 108.223 60.467 77.607 81.974 60.952C103.481 44.296 134.281 47.481 151.924 68.185C169.568 88.889 167.826 119.802 147.968 138.393C145.236 140.022 142.712 141.977 140.453 144.216H140.448V144.215ZM129.79 179.58H23.743V156.19H35.439V117.206H23.743V86.018H35.439V47.034H23.743V23.644H203.08V93.814H187.485V62.629H195.283V54.83H179.688V93.814H171.34C167.588 65.16 143.075 42.949 113.416 42.949C90.219 42.894 69.182 56.553 59.796 77.766C55.2028 88.1474 53.7308 99.6413 55.5596 110.845C57.3884 122.049 62.439 132.478 70.095 140.86C77.7514 149.242 87.6819 155.215 98.6749 158.049C109.668 160.883 121.248 160.456 132.003 156.821C129.004 164.014 128.235 171.942 129.795 179.578H129.79V179.58ZM27.636 125.002V148.392H19.84V125.002H27.637H27.636ZM27.636 54.831V78.221H19.84V54.831H27.637H27.636ZM171.886 117.205V125.002H166.886C167.997 122.472 168.927 119.867 169.669 117.205H171.886ZM164.089 130.479V132.999C163.519 133.057 162.968 133.164 162.403 133.247C162.994 132.341 163.558 131.418 164.093 130.479H164.089ZM35.434 195.173H8.14401V8.05H218.67V93.815H210.872V15.847H15.941V47.034H12.041V86.018H15.941V117.205H12.041V156.189H15.941V187.376H132.286C133.508 190.144 135.048 192.761 136.876 195.173H35.434ZM136.798 171.783C136.799 163.773 139.896 156.072 145.443 150.293C147.986 148.606 150.394 146.724 152.646 144.664C158.062 141.577 164.283 140.194 170.497 140.695C176.711 141.197 182.63 143.56 187.481 147.476V148.392H188.548C199.359 157.87 202.29 173.51 195.645 186.259C188.999 199.008 174.498 205.562 160.536 202.127C146.575 198.693 136.77 186.159 136.798 171.782V171.783ZM242.061 202.969H191.281C194.235 200.751 196.86 198.126 199.079 195.173H242.042L242.062 202.969H242.061ZM242.061 171.782H206.974C206.974 169.163 206.709 166.552 206.184 163.985H242.061V171.782ZM179.683 125.002V117.205H242.061V125.002H179.683Z" fill="#005268"/>
<path d="M19.844 54.831H27.641V78.221H19.844V54.831ZM19.844 125.002H27.641V148.392H19.844V125.002Z" fill="#08595D"/>
<path fill-rule="evenodd" clip-rule="evenodd" d="M113.74 85.938C104.848 85.938 97.64 93.146 97.64 102.037C97.64 110.927 104.848 118.135 113.74 118.135C122.63 118.135 129.838 110.928 129.838 102.037C129.838 99.9228 129.422 97.8293 128.613 95.876C127.804 93.9227 126.618 92.1479 125.123 90.653C123.628 89.158 121.853 87.9722 119.9 87.1632C117.947 86.3542 115.853 85.9379 113.739 85.938H113.74Z" fill="white"/>
</svg>
